X:1
T:Schumann Schlummerlied
T:Schlummerlied
T:from Albumblatter Op. 124
T:Robert Schumann No. 16 Op. 124
C:Robert Schumann No. 16 Op. 124
%%score { ( 1 4 ) | ( 2 3 ) }
L:1/8
Q:1/4=96
M:6/8
K:Eb
V:1 treble nm="Piano" snm="Pno."
V:4 treble 
V:2 bass 
V:3 bass 
V:1
"^Allegretto"!p! B3 g3 | f3 e3 |{/d} c=Bc edc | _B3 A3 | G3 B3 | A3 G3 |{/G} F=EF c2 C | %7
[Q:1/4=86] _E3 D3 |[Q:1/4=96] B3 g3 | f3 e3 |{/d} c=Bc edc | _B3 A3 | G3 B3 | A3 G3 | %14
[Q:1/4=86]{/G} F=EF[Q:1/4=75] A2 D |[Q:1/4=96] [A,B,E-]3 E z2 || f3 B3 | B3 =A2 G | %18
 (2:3:2F=A (2:3:2ce | [EF=Ae]3 [DBd]3 | f3 =B3 | g2 c g2 ^c | %22
[Q:1/4=86]"^rit   -------     tan   ------------    dan    -------    do" [Bd][=A^c][Bd] [df][=ce]A | %23
[Q:1/4=75] B3 B2 B, |[Q:1/4=96]"^Im Tempo" B3 g3 | f3 e3 |{/d} c=Bc edc | _B3 A3 | G3 B3 | A3 G3 | %30
{/G} F=EF c2 C | _E3 D3 | B3 g3 | f3 e3 |{/d} c=Bc edc | _B3 A3 | G3 B3 | A3 G3 |{/G} F=EF A2 D | %39
 [A,B,E-]3 E z2 ||[K:Bb]!p! ([B,DG]2 [A,^F]) ([B,G]d) .[B,G] | ([B,G]/A/B) .[CA] ([A,^F]2 .[B,G]) | %42
 ([B,DG]2 [A,^F]) ([B,G]d) .[B,G] | ([B,G]/A/B) .[CA] ([A,^F]2 .[B,G]) | %44
!pp! ([A,D^F]2 [G,^C=E])[I:staff +1] ([^F,D][I:staff -1]A)[I:staff +1] .[G,^C] | %45
 ([^F,D]/=E/^F) .[G,B,E] ([=E,G,^C]2 .[F,A,D]) | %46
[I:staff -1] ([A,D^F]2 [G,^C=E])[I:staff +1] ([^F,D][I:staff -1]A)[I:staff +1] .[G,^C] | %47
 ([^F,D]/=E/^F) .[G,B,E] ([=E,G,^C]2 .[F,A,D]) |!p![I:staff -1] ([B,DG]2 [A,^F]) ([B,G]d) .[B,G] | %49
 ([B,G]/A/B) .[CA] ([A,^F]2 .[B,G]) |!p! ([B,DG]2 [A,^F]) ([B,G]d) .[B,G] | %51
[Q:1/4=76] ([B,G]/A/B) .[CA] ([A,^F]2[Q:1/4=30] .[B,G]) ||[K:Eb]!p![Q:1/4=96] B3 g3 | f3 e3 | %54
{/d} c=Bc edc | _B3 A3 | G3 B3 | A3 G3 |{/G} F=EF c2 C |[Q:1/4=86] _E3 D3 |[Q:1/4=96] B3 g3 | %61
 f3 e3 |{/d} c=Bc edc | _B3 A3 | G3 B3 | A3 G3 |{/G} F=EF A2 D | [A,B,E-]3 E z2 | f3 B3 | %69
 B3 =A2 G | (2:3:2F=A (2:3:2ce | [EF=Ae]3 [DBd]3 | f3 =B3 | g2 c g2 ^c | %74
"^rit   -------     tan   ------------    dan    -------    do"[Q:1/4=86] [Bd][=A^c][Bd] [df][=ce]A | %75
[Q:1/4=75] B3 B2 B, |"^Im Tempo"[Q:1/4=96] B3 g3 | f3 e3 |{/d} c=Bc edc | _B3 A3 | G3 B3 | A3 G3 | %82
{/G} F=EF c2 C |[Q:1/4=86] _E3 D3 |[Q:1/4=96] B3 g3 | f3 e3 |{/d} c=Bc edc | _B3 A3 | G3 B3 | %89
 A3 G3 |[Q:1/4=86]{/G} F=EF A2 D | [A,B,_E]3 _D z2 | [CE]3 [B,E]3 | E3 D3 | [_DF][CE][B,D] BAG | %95
[Q:1/4=30] F =ef a2 d |[Q:1/4=67] _e2 z BG z | GE/B,/ z EB,/[I:staff +1]G,/[I:staff -1] z | %98
[Q:1/4=45] z3 !fermata![Ge]3 |] %99
V:2
"_Mit Pedal"!ped! (E,B,/E/G- GE/B,/E,-) | (E,B,/E/G- GE/B,/E,-)!ped-up! | %2
!ped! (E,A,/E/A- AE/A,/E,-) | (F,A,/D/[I:staff -1]F-) (F[I:staff +1]D/A,/F,)!ped-up! | %4
!ped! (E,B,/E/[I:staff -1] (G)[I:staff +1] D)B,/F,/D,!ped-up! | %5
!ped! (E,A,/C/[I:staff -1] E)!ped-up!!ped![I:staff +1] (B,,G,/_D/[I:staff -1] =E)!ped-up! | %6
!ped![I:staff +1] (A,,F,/C/[I:staff -1] E)!ped-up!!ped![I:staff +1] (=A,,_E,/F,/[I:staff -1] C)!ped-up! | %7
!ped![I:staff +1] (B,,,B,,/F,/[I:staff -1][_A,B,]) [A,B,][A,B,]/[I:staff +1]F,/B,,!ped-up! | %8
!ped! E,, z x (E,B,/E/G) |[I:staff -1] (BG/E/[I:staff +1]B,) ([E,G,]B,/E/[I:staff -1]G)!ped-up! | %10
!ped![I:staff +1] (E,A,/C/A)[I:staff -1] cA/E/[I:staff +1]A, | %11
 (F,A,/B,/[I:staff -1]D) (FD/[I:staff +1]A,/F,)!ped-up! | %12
!ped! (E,B,/E/[I:staff -1] G)!ped-up!!ped![I:staff +1] (_D,G,/B,/[I:staff -1] _F)!ped-up! | %13
!ped![I:staff +1] (E,A,/C/[I:staff -1] E)!ped-up!!ped![I:staff +1] (B,,G,/_D/[I:staff -1] =E)!ped-up! | %14
!ped![I:staff +1] (A,,F,/C/[I:staff -1] E)!ped-up!!ped![I:staff +1] (B,,,_B,,/F,/[I:staff -1] [A,B,]-)!ped-up! | %15
!ped![I:staff +1] E,,B,,/E,/ G,[I:staff -1] B,[I:staff +1]G,/E,/B,,!ped-up! || %16
!ped! (D,F,/B,/D- DD/B,/F,) | (C,F,/=A,/C- CA,/F,/B,,)!ped-up! | %18
!ped! (=A,,C,/F,/C)!ped-up!!ped! (F,,F,/=A,/[I:staff -1] E)!ped-up! | %19
!ped![I:staff +1] (B,,F,/=A,/(F-) F)F/B,/F,!ped-up! |!ped! (D,F,/B,/D FD/=B,/F,)!ped-up! | %21
!ped! (E,G,/C/[I:staff -1] G)!ped-up!!ped![I:staff +1] (=E,G,/^C/[I:staff -1] G)!ped-up! | %22
[I:staff +1] [B,D][=A,^C][B,D] [DF][=CE]A, | %23
!ped! B,,F,/B,/[I:staff -1] D[I:staff +1] z z2!ped-up! |!ped! (E,B,/E/G- GE/B,/E,-) | %25
 (E,B,/E/G[I:staff -1] (B)[I:staff +1]E/)B,/E,-!ped-up! | %26
!ped! (E,A,/E/A[I:staff -1] (A[I:staff +1]E/)A,/E,-) | %27
 (F,A,/D/[I:staff -1]F-) (F[I:staff +1]D/A,/F,)!ped-up! | %28
!ped! (E,B,/E/[I:staff -1] (G)[I:staff +1] D)B,/F,/D,!ped-up! | %29
!ped! (E,A,/C/[I:staff -1] E)!ped-up!!ped![I:staff +1] (B,,G,/_D/[I:staff -1] =E)!ped-up! | %30
!ped![I:staff +1] (A,,F,/C/[I:staff -1] E)!ped-up!!ped![I:staff +1] (=A,,_E,/F,/[I:staff -1] C)!ped-up! | %31
!ped![I:staff +1] (B,,,B,,/F,/[I:staff -1][_A,B,]) [A,B,][A,B,]/[I:staff +1]F,/B,,!ped-up! | %32
!ped! E,, z x (E,B,/E/G) |[I:staff -1] (BG/E/[I:staff +1]B,) ([E,G,]B,/E/[I:staff -1]G)!ped-up! | %34
!ped![I:staff +1] (E,A,/C/A)[I:staff -1] cA/E/[I:staff +1]A, | %35
 (F,A,/B,/[I:staff -1]D) (FD/[I:staff +1]A,/F,)!ped-up! | %36
!ped! (E,B,/E/[I:staff -1] G)!ped-up!!ped![I:staff +1] (_D,G,/B,/[I:staff -1] _F)!ped-up! | %37
!ped![I:staff +1] (E,A,/C/[I:staff -1] E)!ped-up!!ped![I:staff +1] (B,,G,/_D/[I:staff -1] =E)!ped-up! | %38
!ped![I:staff +1] (A,,F,/C/[I:staff -1] E)!ped-up!!ped![I:staff +1] (B,,,_B,,/F,/[I:staff -1] [A,B,]-)!ped-up! | %39
!ped![I:staff +1] E,,B,,/E,/ G,[I:staff -1] B,[I:staff +1]G,/E,/B,,!ped-up! ||[K:Bb] z D,2 z D,2 | %41
 z (D,C,-) (C,/D,/)E,D, | z D,2 z D,2 | z (D,C,-) (C,/D,/)E,D, | z A,,2 z A,,2 | %45
 z [D,,A,,][G,,,G,,-] G,,/A,,/ ([A,,,B,,][D,,A,,]) | z A,,2 z A,,2 | %47
 z [D,,A,,][G,,,G,,-] G,,/A,,/ ([A,,,B,,][D,,A,,]) | z D,2 z D,2 | z (D,C,-) (C,/D,/)E,D, | %50
 z D,2 z D,2 | z (D,C,-) (C,/D,/)E,D, ||[K:Eb]"_Mit Pedal"!ped! (E,B,/E/G- GE/B,/E,-) | %53
 (E,B,/E/G- GE/B,/E,-)!ped-up! |!ped! (E,A,/E/A- AE/A,/E,-) | %55
 (F,A,/D/[I:staff -1]F-) (F[I:staff +1]D/A,/F,)!ped-up! | %56
!ped! (E,B,/E/[I:staff -1] (G)[I:staff +1] D)B,/F,/D,!ped-up! | %57
!ped! (E,A,/C/[I:staff -1] E)!ped-up!!ped![I:staff +1] (B,,G,/_D/[I:staff -1] =E)!ped-up! | %58
!ped![I:staff +1] (A,,F,/C/[I:staff -1] E)!ped-up!!ped![I:staff +1] (=A,,_E,/F,/[I:staff -1] C)!ped-up! | %59
!ped![I:staff +1] (B,,,B,,/F,/[I:staff -1][_A,B,]) [A,B,][A,B,]/[I:staff +1]F,/B,,!ped-up! | %60
!ped! E,, z x (E,B,/E/G) |[I:staff -1] (BG/E/[I:staff +1]B,) ([E,G,]B,/E/[I:staff -1]G)!ped-up! | %62
!ped![I:staff +1] (E,A,/C/A)[I:staff -1] cA/E/[I:staff +1]A, | %63
 (F,A,/B,/[I:staff -1]D) (FD/[I:staff +1]A,/F,)!ped-up! | %64
!ped! (E,B,/E/[I:staff -1] G)!ped-up!!ped![I:staff +1] (_D,G,/B,/[I:staff -1] _F)!ped-up! | %65
!ped![I:staff +1] (E,A,/C/[I:staff -1] E)!ped-up!!ped![I:staff +1] (B,,G,/_D/[I:staff -1] =E)!ped-up! | %66
!ped![I:staff +1] (A,,F,/C/[I:staff -1] E)!ped-up!!ped![I:staff +1] (B,,,_B,,/F,/[I:staff -1] [A,B,]-)!ped-up! | %67
!ped![I:staff +1] E,,B,,/E,/ G,[I:staff -1] B,[I:staff +1]G,/E,/B,,!ped-up! | %68
!ped! (D,F,/B,/D- DD/B,/F,) | (C,F,/=A,/C- CA,/F,/B,,)!ped-up! | %70
!ped! (=A,,C,/F,/C)!ped-up!!ped! (F,,F,/=A,/[I:staff -1] E)!ped-up! | %71
!ped![I:staff +1] (B,,F,/=A,/(F-) F)F/B,/F,!ped-up! |!ped! (D,F,/B,/D FD/=B,/F,)!ped-up! | %73
!ped! (E,G,/C/[I:staff -1] G)!ped-up!!ped![I:staff +1] (=E,G,/^C/[I:staff -1] G)!ped-up! | %74
[I:staff +1] [B,D][=A,^C][B,D] [DF][=CE]A, | %75
!ped! B,,F,/B,/[I:staff -1] D[I:staff +1] z z2!ped-up! |!ped! (E,B,/E/G- GE/B,/E,-) | %77
 (E,B,/E/G[I:staff -1] (B)[I:staff +1]E/)B,/E,-!ped-up! | %78
!ped! (E,A,/E/A[I:staff -1] (A[I:staff +1]E/)A,/E,-) | %79
 (F,A,/D/[I:staff -1]F-) (F[I:staff +1]D/A,/F,)!ped-up! | %80
!ped! (E,B,/E/[I:staff -1] (G)[I:staff +1] D)B,/F,/D,!ped-up! | %81
!ped! (E,A,/C/[I:staff -1] E)!ped-up!!ped![I:staff +1] (B,,G,/_D/[I:staff -1] =E)!ped-up! | %82
!ped![I:staff +1] (A,,F,/C/[I:staff -1] E)!ped-up!!ped![I:staff +1] (=A,,_E,/F,/[I:staff -1] C)!ped-up! | %83
!ped![I:staff +1] (B,,,B,,/F,/[I:staff -1][_A,B,]) [A,B,][A,B,]/[I:staff +1]F,/B,,!ped-up! | %84
!ped! E,, z x (E,B,/E/G) |[I:staff -1] (BG/E/[I:staff +1]B,) ([E,G,]B,/E/[I:staff -1]G)!ped-up! | %86
!ped![I:staff +1] (E,A,/C/A)[I:staff -1] cA/E/[I:staff +1]A, | %87
 (F,A,/B,/[I:staff -1]D) (FD/[I:staff +1]A,/F,)!ped-up! | %88
!ped! (E,B,/E/[I:staff -1] G)!ped-up!!ped![I:staff +1] (_D,G,/B,/[I:staff -1] _F)!ped-up! | %89
!ped![I:staff +1] (E,A,/C/[I:staff -1] E)!ped-up!!ped![I:staff +1] (B,,G,/_D/[I:staff -1] =E)!ped-up! | %90
!ped![I:staff +1] (A,,F,/C/[I:staff -1] E)!ped-up!!ped![I:staff +1] (B,,,_B,,/F,/[I:staff -1] [A,B,]-)!ped-up! | %91
!ped![I:staff +1] E,,B,,/E,/ G,[I:staff -1] _DB,/G,/[I:staff +1]E,!ped-up! | %92
!ped! E,,3 E,,3!ped-up! |!ped! E,,3 E,,3!ped-up! |!ped! E,,3 E,3!ped-up! | %95
 !arpeggio![E,A,_C]3 [E,F,B,]3 | %96
!ped! E,B,/E/[I:staff -1] G[I:staff +1] z[I:staff -1] G/[I:staff +1]E/B, | x2 G, x2 B,, | %98
 E,,!ped-up! z2 !fermata![E,B,]3 |] %99
V:3
 x6 | x6 | x6 | E,6 | x6 | x6 | x6 | x6 | x6 | x6 | x6 | E,6 | x6 | x6 | x6 | x6 || x6 | x6 | x6 | %19
 x6 | x6 | E,3 =E,3 | F,3 =A,2 E, | x6 | x6 | x6 | x6 | E,6 | x6 | x6 | x6 | x6 | x6 | x6 | x6 | %35
 E,6 | x6 | x6 | x6 | x6 ||[K:Bb] x G,,D,, x G,,D,, | x G,,C,, x D,,G,, | x G,,D,, x G,,D,, | %43
 x G,,C,, x D,,G,, | x D,,A,,, x D,,A,,, | x6 | x D,,A,,, x D,,A,,, | x6 | x G,,D,, x G,,D,, | %49
 x G,,C,, x D,,G,, | x G,,D,, x G,,D,, | x G,,C,, x D,,G,, ||[K:Eb] x6 | x6 | x6 | E,6 | x6 | x6 | %58
 x6 | x6 | x6 | x6 | x6 | E,6 | x6 | x6 | x6 | x6 | x6 | x6 | x6 | x6 | x6 | E,3 =E,3 | %74
 F,3 =A,2 E, | x6 | x6 | x6 | x6 | E,6 | x6 | x6 | x6 | x6 | x6 | x6 | x6 | E,6 | x6 | x6 | x6 | %91
 E,,3 x3 | x6 | B,,3/2B,,B,,/- B,,3/2B,,B,,/ | G,2 G, A,2 B, | %95
[I:staff -1] !arpeggio!=D3[I:staff +1] D2 A | x6 | x6 | x6 |] %99
V:4
 x6 | x6 | x6 | x6 | x6 | x6 | x6 | x6 | (GE/B,/[I:staff +1]G,) x3 | x6 | x6 | x6 | x6 | x6 | x6 | %15
 x6 || x3[I:staff -1] F3 | E3 E2 E | E3- E2 x | x6 | x3 _A2 G | x2 G x2 G | F3 =A2 E | %23
 E2 D _AF/D/ x | x3 B3 | x6 | x6 | x6 | x6 | x6 | x6 | x6 | (GE/B,/[I:staff +1]G,) x3 | x6 | x6 | %35
 x6 | x6 | x6 | x6 | x6 ||[K:Bb] x6 | x6 | x6 | x6 | x6 | x6 | x6 | x6 | x6 | x6 | x6 | x6 || %52
[K:Eb] x6 | x6 | x6 | x6 | x6 | x6 | x6 | x6 |[I:staff -1] (GE/B,/[I:staff +1]G,) x3 | x6 | x6 | %63
 x6 | x6 | x6 | x6 | x6 | x3[I:staff -1] F3 | E3 E2 E | E3- E2 x | x6 | x3 _A2 G | x2 G x2 G | %74
 F3 =A2 E | E2 D _AF/D/ x | x3 B3 | x6 | x6 | x6 | x6 | x6 | x6 | x6 | (GE/B,/[I:staff +1]G,) x3 | %85
 x6 | x6 | x6 | x6 | x6 | x6 | x6 | %92
[I:staff -1] CA,/E,/[I:staff +1]C,[I:staff -1] B,G,/E,/[I:staff +1]B,, | %93
 [F,A,][E,G,][F,A,] [A,C][G,B,][F,A,] | x3[I:staff -1] [CE]2 E | x6 | x6 | x6 | x6 |] %99

